X: 12783
T: Fayette Park
R: slide
M: 12/8
K: Dmajor
|:A|F2D F2D BAG B2d|A2F FED F2A E2A|
F2D F2D BAG B2d|e2c ABc d3 d2:|
|:f|f2d f2d e2g edB|A2F FGA F2D E2d|
f2d f2d efg a2g|e2c A2c d3 d2:|

